X: 15221
T: Ginny And The Teepee
R: waltz
M: 3/4
K: Bminor
d2|g3f fe|d3 B BA|F2BFBF|ABBABF|~A3 F FE|DEFGAF|BFBFAF|F4 B2|
g3 f fe|d3 B BA|F2BFBF|{A}B3A BA|d3 e fa|e3 B BA|B6|B4:|
|:d2|f4 a2|g3f fe|f3dB2|FABcde|f3 d Bd|{g} b4 a2|a3 g gf|f4 ga|
f3 d B2|B3 d ge|f3 d B2|B3 d fd|b3 a af|e3 B BA|B6|B4:|

